static/icons/timer.svg

<svg width="22" height="16" viewBox="0 0 22 16" fill="none" xmlns="http://www.w3.org/2000/svg">
<path d="M14.5 0.75C13.0661 0.75 11.6644 1.1752 10.4721 1.97185C9.27986 2.76849 8.35061 3.90078 7.80187 5.22555C7.25314 6.55031 7.10956 8.00804 7.38931 9.41441C7.66905 10.8208 8.35955 12.1126 9.37348 13.1265C10.3874 14.1405 11.6792 14.831 13.0856 15.1107C14.492 15.3904 15.9497 15.2469 17.2745 14.6981C18.5992 14.1494 19.7315 13.2201 20.5282 12.0279C21.3248 10.8356 21.75 9.43392 21.75 8C21.7474 6.07799 20.9827 4.23546 19.6236 2.8764C18.2645 1.51733 16.422 0.752646 14.5 0.75ZM16.78 10.28C16.6394 10.4205 16.4488 10.4993 16.25 10.4993C16.0512 10.4993 15.8606 10.4205 15.72 10.28L14 8.53C13.8593 8.38948 13.7802 8.19885 13.78 8V5C13.78 4.80109 13.859 4.61032 13.9997 4.46967C14.1403 4.32902 14.3311 4.25 14.53 4.25C14.7289 4.25 14.9197 4.32902 15.0603 4.46967C15.201 4.61032 15.28 4.80109 15.28 5V7.69L16.81 9.22C16.9465 9.36456 17.0201 9.55744 17.0145 9.75621C17.0088 9.95499 16.9245 10.1434 16.78 10.28ZM5.5 8.75H1C0.801088 8.75 0.610322 8.67098 0.46967 8.53033C0.329018 8.38968 0.25 8.19891 0.25 8C0.25 7.80109 0.329018 7.61032 0.46967 7.46967C0.610322 7.32902 0.801088 7.25 1 7.25H5.5C5.69891 7.25 5.88968 7.32902 6.03033 7.46967C6.17098 7.61032 6.25 7.80109 6.25 8C6.25 8.19891 6.17098 8.38968 6.03033 8.53033C5.88968 8.67098 5.69891 8.75 5.5 8.75Z" fill="black"/>
<path d="M6.5 4.75H4C3.80109 4.75 3.61032 4.67098 3.46967 4.53033C3.32902 4.38968 3.25 4.19891 3.25 4C3.25 3.80109 3.32902 3.61032 3.46967 3.46967C3.61032 3.32902 3.80109 3.25 4 3.25H6.5C6.69891 3.25 6.88968 3.32902 7.03033 3.46967C7.17098 3.61032 7.25 3.80109 7.25 4C7.25 4.19891 7.17098 4.38968 7.03033 4.53033C6.88968 4.67098 6.69891 4.75 6.5 4.75ZM6.5 12.75H4C3.80109 12.75 3.61032 12.671 3.46967 12.5303C3.32902 12.3897 3.25 12.1989 3.25 12C3.25 11.8011 3.32902 11.6103 3.46967 11.4697C3.61032 11.329 3.80109 11.25 4 11.25H6.5C6.69891 11.25 6.88968 11.329 7.03033 11.4697C7.17098 11.6103 7.25 11.8011 7.25 12C7.25 12.1989 7.17098 12.3897 7.03033 12.5303C6.88968 12.671 6.69891 12.75 6.5 12.75Z" fill="black"/>
</svg>

<svg xmlns="http://www.w3.org/2000/svg" width="22" height="16" fill="none"><path fill="#000" d="M14.5.75A7.25 7.25 0 1 0 21.75 8 7.26 7.26 0 0 0 14.5.75Zm2.28 9.53a.75.75 0 0 1-1.06 0L14 8.53a.75.75 0 0 1-.22-.53V5a.75.75 0 1 1 1.5 0v2.69l1.53 1.53a.75.75 0 0 1-.03 1.06ZM5.5 8.75H1a.75.75 0 0 1 0-1.5h4.5a.75.75 0 0 1 0 1.5Z"/><path fill="#000" d="M6.5 4.75H4a.75.75 0 0 1 0-1.5h2.5a.75.75 0 0 1 0 1.5Zm0 8H4a.75.75 0 1 1 0-1.5h2.5a.75.75 0 1 1 0 1.5Z"/></svg>
